X: 20938
T: Joy Go With My Love
R: jig
M: 6/8
K: Dmajor
g|:g<fA A>eA|e>dB B>dg|g<fA A<eA|e>dB A2 g|
g<fA A>eA|e>dB B>dg|g>fd f>eB|c2A A2 g:|
f>ga aeg|f>ed B>dg|f>ga aeg|f>ga aAg|
f>ga aeg|f>ed B>dg|g>fd f>eB|c2A [1 A2 g:|2 A3||

